images/zora.svg

<svg height="250" viewBox="0 0 250 250" width="250" xmlns="http://www.w3.org/2000/svg"><g fill-rule="evenodd"><path d="m179.824219 39.050781c-.542969.765625-5.25 5.933594-10.460938 11.480469-5.210937 5.546875-19.078125 20.421875-30.8125 33.054688-11.734375 12.628906-23.566406 25.339843-26.292969 28.242187-8.339843 8.886719-53.78125 57.75-57.214843 61.527344-1.777344 1.953125-3.113281 3.867187-2.96875 4.257812.296875.800781 13.847656 13.652344 14.398437 13.652344.199219 0 6.40625-6.523437 13.792969-14.496094 7.386719-7.972656 15.832031-17.035156 18.773437-20.144531 2.9375-3.105469 7.523438-8.015625 10.191407-10.910156 2.667969-2.894532 7.246093-7.808594 10.175781-10.917969 2.925781-3.109375 7.988281-8.535156 11.242188-12.054687 14.195312-15.34375 33.617187-36.210938 39.949218-42.921876 4.832032-5.121093 12.519532-13.398437 15.394532-16.578124.621093-.683594 3.277343-3.5 5.902343-6.253907 2.625-2.757812 4.660157-5.320312 4.519531-5.703125-.429687-1.164062-13.984374-13.632812-14.820312-13.632812-.433594 0-1.230469.628906-1.769531 1.398437m-89.589844 6.03125c-.136719.359375-9.925781 10.777344-21.757813 23.15625-11.828124 12.375-23.007812 24.152344-24.84375 26.175781l-3.34375 3.671876 7.523438 7.050781 7.523438 7.046875 2.339843-2.4375c1.285157-1.34375 10.242188-10.742188 19.902344-20.890625 9.660156-10.148438 20.125-21.074219 23.253906-24.285157l5.6875-5.839843-7.125-7.152344c-6.703125-6.730469-8.5625-8.050781-9.160156-6.496094m93.484375 94.789063c-2.640625 2.796875-8.207031 8.648437-12.371094 13.007812-4.160156 4.355469-11.113281 11.640625-15.445312 16.1875-4.332032 4.546875-10.25 10.722656-13.15625 13.722656l-5.277344 5.457032 4.121094 4.203125c2.265625 2.3125 5.6875 5.53125 7.601562 7.152343l3.484375 2.945313 15.667969-16.371094c23.625-24.691406 30.609375-32.015625 33.054688-34.683593l2.230468-2.429688-7.109375-7.136719c-3.910156-3.925781-7.308593-7.136719-7.554687-7.136719s-2.605469 2.285157-5.246094 5.082032" fill="#f6f6f6"/><path d="m0 125.003906v125l125.1875-.191406 125.1875-.1875.382812-249.625h-250.757812zm.367188.371094c0 68.75.089843 96.988281.199218 62.75.105469-34.238281.105469-90.488281 0-125-.109375-34.511719-.199218-6.5-.199218 62.25m179.457031-86.324219c-.542969.765625-5.25 5.933594-10.460938 11.480469-5.210937 5.546875-19.078125 20.421875-30.8125 33.054688-11.734375 12.628906-23.566406 25.339843-26.292969 28.242187-8.339843 8.886719-53.78125 57.75-57.214843 61.527344-1.777344 1.953125-3.113281 3.867187-2.96875 4.257812.296875.800781 13.847656 13.652344 14.398437 13.652344.199219 0 6.40625-6.523437 13.792969-14.496094 7.386719-7.972656 15.832031-17.035156 18.773437-20.144531 2.9375-3.105469 7.523438-8.015625 10.191407-10.910156 2.667969-2.894532 7.246093-7.808594 10.175781-10.917969 2.925781-3.109375 7.988281-8.535156 11.242188-12.054687 14.195312-15.34375 33.617187-36.210938 39.949218-42.921876 4.832032-5.121093 12.519532-13.398437 15.394532-16.578124.621093-.683594 3.277343-3.5 5.902343-6.253907 2.625-2.757812 4.660157-5.320312 4.519531-5.703125-.429687-1.164062-13.984374-13.632812-14.820312-13.632812-.433594 0-1.230469.628906-1.769531 1.398437m-89.589844 6.03125c-.136719.359375-9.925781 10.777344-21.757813 23.15625-11.828124 12.375-23.007812 24.152344-24.84375 26.175781l-3.34375 3.671876 7.523438 7.050781 7.523438 7.046875 2.339843-2.4375c1.285157-1.34375 10.242188-10.742188 19.902344-20.890625 9.660156-10.148438 20.125-21.074219 23.253906-24.285157l5.6875-5.839843-7.125-7.152344c-6.703125-6.730469-8.5625-8.050781-9.160156-6.496094m93.484375 94.789063c-2.640625 2.796875-8.207031 8.648437-12.371094 13.007812-4.160156 4.355469-11.113281 11.640625-15.445312 16.1875-4.332032 4.546875-10.25 10.722656-13.15625 13.722656l-5.277344 5.457032 4.121094 4.203125c2.265625 2.3125 5.6875 5.53125 7.601562 7.152343l3.484375 2.945313 15.667969-16.371094c23.625-24.691406 30.609375-32.015625 33.054688-34.683593l2.230468-2.429688-7.109375-7.136719c-3.910156-3.925781-7.308593-7.136719-7.554687-7.136719s-2.605469 2.285157-5.246094 5.082032" fill="#040404"/></g></svg>

<?xml version="1.0" encoding="UTF-8"?>
<svg xmlns="http://www.w3.org/2000/svg" xmlns:xlink="http://www.w3.org/1999/xlink" width="250px" height="250px" viewBox="0 0 250 250" version="1.1">
<g id="surface1">
<path style=" stroke:none;fill-rule:evenodd;fill:rgb(96.470588%,96.470588%,96.470588%);fill-opacity:1;" d="M 179.824219 39.050781 C 179.28125 39.816406 174.574219 44.984375 169.363281 50.53125 C 164.152344 56.078125 150.285156 70.953125 138.550781 83.585938 C 126.816406 96.214844 114.984375 108.925781 112.257812 111.828125 C 103.917969 120.714844 58.476562 169.578125 55.042969 173.355469 C 53.265625 175.308594 51.929688 177.222656 52.074219 177.613281 C 52.371094 178.414062 65.921875 191.265625 66.472656 191.265625 C 66.671875 191.265625 72.878906 184.742188 80.265625 176.769531 C 87.652344 168.796875 96.097656 159.734375 99.039062 156.625 C 101.976562 153.519531 106.5625 148.609375 109.230469 145.714844 C 111.898438 142.820312 116.476562 137.90625 119.40625 134.796875 C 122.332031 131.6875 127.394531 126.261719 130.648438 122.742188 C 144.84375 107.398438 164.265625 86.53125 170.597656 79.820312 C 175.429688 74.699219 183.117188 66.421875 185.992188 63.242188 C 186.613281 62.558594 189.269531 59.742188 191.894531 56.988281 C 194.519531 54.230469 196.554688 51.667969 196.414062 51.285156 C 195.984375 50.121094 182.429688 37.652344 181.59375 37.652344 C 181.160156 37.652344 180.363281 38.28125 179.824219 39.050781 M 90.234375 45.082031 C 90.097656 45.441406 80.308594 55.859375 68.476562 68.238281 C 56.648438 80.613281 45.46875 92.390625 43.632812 94.414062 L 40.289062 98.085938 L 47.8125 105.136719 L 55.335938 112.183594 L 57.675781 109.746094 C 58.960938 108.402344 67.917969 99.003906 77.578125 88.855469 C 87.238281 78.707031 97.703125 67.78125 100.832031 64.570312 L 106.519531 58.730469 L 99.394531 51.578125 C 92.691406 44.847656 90.832031 43.527344 90.234375 45.082031 M 183.71875 139.871094 C 181.078125 142.667969 175.511719 148.519531 171.347656 152.878906 C 167.1875 157.234375 160.234375 164.519531 155.902344 169.066406 C 151.570312 173.613281 145.652344 179.789062 142.746094 182.789062 L 137.46875 188.246094 L 141.589844 192.449219 C 143.855469 194.761719 147.277344 197.980469 149.191406 199.601562 L 152.675781 202.546875 L 168.34375 186.175781 C 191.96875 161.484375 198.953125 154.160156 201.398438 151.492188 L 203.628906 149.0625 L 196.519531 141.925781 C 192.609375 138 189.210938 134.789062 188.964844 134.789062 C 188.71875 134.789062 186.359375 137.074219 183.71875 139.871094 "/>
<path style=" stroke:none;fill-rule:evenodd;fill:rgb(1.568628%,1.568628%,1.568628%);fill-opacity:1;" d="M 0 125.003906 L 0 250.003906 L 125.1875 249.8125 L 250.375 249.625 L 250.757812 0 L 0 0 L 0 125.003906 M 0.367188 125.375 C 0.367188 194.125 0.457031 222.363281 0.566406 188.125 C 0.671875 153.886719 0.671875 97.636719 0.566406 63.125 C 0.457031 28.613281 0.367188 56.625 0.367188 125.375 M 179.824219 39.050781 C 179.28125 39.816406 174.574219 44.984375 169.363281 50.53125 C 164.152344 56.078125 150.285156 70.953125 138.550781 83.585938 C 126.816406 96.214844 114.984375 108.925781 112.257812 111.828125 C 103.917969 120.714844 58.476562 169.578125 55.042969 173.355469 C 53.265625 175.308594 51.929688 177.222656 52.074219 177.613281 C 52.371094 178.414062 65.921875 191.265625 66.472656 191.265625 C 66.671875 191.265625 72.878906 184.742188 80.265625 176.769531 C 87.652344 168.796875 96.097656 159.734375 99.039062 156.625 C 101.976562 153.519531 106.5625 148.609375 109.230469 145.714844 C 111.898438 142.820312 116.476562 137.90625 119.40625 134.796875 C 122.332031 131.6875 127.394531 126.261719 130.648438 122.742188 C 144.84375 107.398438 164.265625 86.53125 170.597656 79.820312 C 175.429688 74.699219 183.117188 66.421875 185.992188 63.242188 C 186.613281 62.558594 189.269531 59.742188 191.894531 56.988281 C 194.519531 54.230469 196.554688 51.667969 196.414062 51.285156 C 195.984375 50.121094 182.429688 37.652344 181.59375 37.652344 C 181.160156 37.652344 180.363281 38.28125 179.824219 39.050781 M 90.234375 45.082031 C 90.097656 45.441406 80.308594 55.859375 68.476562 68.238281 C 56.648438 80.613281 45.46875 92.390625 43.632812 94.414062 L 40.289062 98.085938 L 47.8125 105.136719 L 55.335938 112.183594 L 57.675781 109.746094 C 58.960938 108.402344 67.917969 99.003906 77.578125 88.855469 C 87.238281 78.707031 97.703125 67.78125 100.832031 64.570312 L 106.519531 58.730469 L 99.394531 51.578125 C 92.691406 44.847656 90.832031 43.527344 90.234375 45.082031 M 183.71875 139.871094 C 181.078125 142.667969 175.511719 148.519531 171.347656 152.878906 C 167.1875 157.234375 160.234375 164.519531 155.902344 169.066406 C 151.570312 173.613281 145.652344 179.789062 142.746094 182.789062 L 137.46875 188.246094 L 141.589844 192.449219 C 143.855469 194.761719 147.277344 197.980469 149.191406 199.601562 L 152.675781 202.546875 L 168.34375 186.175781 C 191.96875 161.484375 198.953125 154.160156 201.398438 151.492188 L 203.628906 149.0625 L 196.519531 141.925781 C 192.609375 138 189.210938 134.789062 188.964844 134.789062 C 188.71875 134.789062 186.359375 137.074219 183.71875 139.871094 "/>
</g>
</svg>
